!!!!SEGMENT: pl-sa--374-a-viii-14--001_anonim--ach-ja-matka-zasmucona.krn
!!!cenid: 17xx:1233
!!!COM: Anonim
!!!COM-rismid: pe30004985
!!!CDT:
!!!CNT:
!!!OTL: Ach ja matka zasmucona
!!!PDT:
!!!AGN: Sacred
!!!SMS-siglum: PL-SA
!!!SMS-shelfmark: 374/A VIII 14
!!!SMS-shelfwork: 001 W
!!!SMS-variant:
!!!SMS-altvar:
!!!NIFC-rismid: 1001077356
!!!URL-scan: http://bc.bdsandomierz.pl/dlibra/publication/1678/edition/1646/content
!!!ONB-nifc: Planctus 1mus
!!!key: c
**kern	**text	**text	**text
*clefC3	*	*	*
*k[]	*	*	*
*c:	*	*	*
*ICvox	*	*	*
*IG	*	*	*
*M2/2	*	*	*
*met(c|)	*	*	*
=1	=1	=1	=1
*2\right	*	*	*
!LO:TX:a:t=Planctus 1mus&colon;	!	!	!
2g\	Ach	Kto-	Wi-
4g\	ia	-re-	-dzę
4g\	Mat-	-gom	Sy-
=2	=2	=2	=2
4.f\	-ka	ia	-na-
8g\	za-	bez	-czka
4.e-X\	-smu-	bo-	mi-
8f\	-co-	-les-	-łe-
=3	=3	=3	=3
1d	-na	-ci	-go
=4	=4	=4	=4
*	*ij	*ij	*ij
2b-X\	Ach	Kto-	Wi-
4b-\	ia	-re-	-dzę
4b-\	Mat-	-gom	Sy-
=5	=5	=5	=5
4.a-X\	-ka	ia	-na-
8a-\	za-	bez	-czka
4g\	-smu-	bo-	mi-
4g\	-co-	-les-	-łe-
=6	=6	=6	=6
2f,\	-na	-ci	-go
*	*Xij	*Xij	*Xij
2f\	dla	po-	o-
!LO:TX:a:i:t=Alto	!	!	!
4f\	Smier-	-cze-	-kru-
4g\	.	.	.
4a-X\	-ci	-ła	-tnie
4g\	.	.	.
=8	=8	=8	=8
4.f\	Sy-	no-	roz-
8g\	-na	-sic	-cią-
4.f\	Stra-	w ra-	-gnio-
8e-X\	-pio-	-do-	-ne-
=9	=9	=9	=9
1e-X	-na.	-sci.	-go.
!LO:LB:g=original	!	!	!
=10||	=10||	=10||	=10||
2g\	bo-	bo-	bo-
4.d\	-leść	-leść	-leść
8d\	mię	mię	mię
=11	=11	=11	=11
4d\	wiel-	wiel-	wiel-
4e-X\	-ka	-ka	-ka
4.f\	do-	do-	do-
8f\	-ty-	-ty-	-ty-
=12	=12	=12	=12
1f	-ka	-ka	-ka
2f\	miecz	miecz	miecz
4f\	os-	os-	os-
4g\	-try	-try	-try
.	.	.	.
8a-X\L	Ser-	Ser-	Ser-
8g\	.	.	.
8f\	.	.	.
8e-X\J	.	.	.
4.d\	-ce	-ce	-ce
8e-\	prze-	prze-	prze-
!LO:TX:t=P:problem:fermata nad 2 nutami	!	!	!
4.d;\	-ni-	-ni-	-ni-
8c\	.	.	.
2c/	-ka.	-ka.	-ka.
==	==	==	==
*-	*-	*-	*-
!!!AIN: 
!!!ENC: Andrzej Borzym
!!!END: 2020-11-22
!!!ENC: Julita Ruszuk
!!!END: 2022-01-30
